X: 1
T: Rickett's
R: hornpipe
M: 4/4
L: 1/8
K: Dmaj
(3ABc|dcdA FAdf|edcB A2fg|afaf bagf|edcB A2fe|
dcdA FAdf|edcB A2fg|afdf (3gag ec|d2f2d2:|
fg|afaf dfaf|bgbg efge|afaf bagf| (3efe (3dcB A2fe|
dcdA FAdf|edcB A2fg|afdf (3gag ec|d2f2d2:|


Tune 272	Setting 13012

